static/images/immudb/runs-on/python.svg

<svg width="220" height="64" viewBox="0 0 220 64" fill="none" xmlns="http://www.w3.org/2000/svg">
<path d="M82.9727 27.1923C82.9727 20.4289 81.0271 17.0009 77.1822 16.8157C75.6535 16.723 74.1711 17.0009 72.6887 17.5568C71.5306 17.9738 70.7431 18.3907 70.3262 18.8076V34.9285C72.7814 36.4572 74.9586 37.1983 76.8579 37.0594C80.9808 36.7351 82.9727 33.4461 82.9727 27.1923ZM87.7441 27.4702C87.7441 30.8982 86.9566 33.724 85.3352 35.9939C83.5286 38.5417 81.0271 39.8852 77.8307 39.9315C75.4218 40.0241 72.9667 39.2366 70.3725 37.6616V52.3001L66.2496 50.8177V18.3444C66.9445 17.5105 67.7783 16.8157 68.8438 16.2134C71.299 14.7774 74.2637 14.0362 77.7844 13.9899L77.8307 14.0362C81.0271 13.9899 83.5286 15.3333 85.2426 17.9738C86.9103 20.4753 87.7441 23.6253 87.7441 27.4702Z" fill="#646464"/>
<path d="M112.945 37.0594C112.945 41.6455 112.481 44.8419 111.555 46.6022C110.628 48.3625 108.868 49.7986 106.274 50.8177C104.143 51.6515 101.873 52.1148 99.4179 52.1611L98.723 49.5669C101.225 49.2427 102.985 48.8721 103.958 48.5478C105.95 47.8529 107.339 46.8338 108.081 45.4441C108.683 44.3323 108.961 42.155 108.961 38.9587V37.8932C106.135 39.1903 103.17 39.7925 100.066 39.7925C98.0281 39.7925 96.2215 39.144 94.6928 37.8932C92.9788 36.5035 92.0986 34.7432 92.0986 32.5659V15.4259L96.2215 13.9899V31.2688C96.2215 33.1218 96.8237 34.5579 98.0281 35.5307C99.2326 36.5498 100.761 37.0131 102.661 36.9667C104.56 36.9204 106.598 36.1792 108.729 34.7432V14.6384H112.852V37.0594H112.945Z" fill="#646464"/>
<path d="M129.065 39.6999C128.556 39.7463 128.139 39.7463 127.722 39.7463C125.406 39.7463 123.553 39.1904 122.256 38.0786C120.959 36.9668 120.31 35.4381 120.31 33.4461V17.2326H117.484V14.6385H120.31V7.73616L124.433 6.25378V14.6385H129.065V17.2326H124.433V33.3535C124.433 34.8822 124.85 35.994 125.684 36.6425C126.379 37.1521 127.537 37.4764 129.065 37.569V39.6999Z" fill="#646464"/>
<path d="M154.034 39.3757H149.911V23.4401C149.911 21.8187 149.541 20.429 148.8 19.2709C147.919 17.9738 146.715 17.279 145.186 17.279C143.287 17.279 140.924 18.2981 138.099 20.29V39.3757H133.929V1.29708L138.052 0V17.3253C140.693 15.426 143.565 14.4532 146.715 14.4532C148.892 14.4532 150.653 15.1944 152.042 16.6767C153.386 18.1591 154.081 19.9658 154.081 22.143V39.3757H154.034Z" fill="#646464"/>
<path d="M175.992 26.5438C175.992 23.9496 175.482 21.8187 174.51 20.1047C173.351 18.0201 171.545 16.9546 169.09 16.862C164.55 17.1399 162.326 20.3826 162.326 26.5901C162.326 29.4622 162.789 31.8247 163.762 33.724C164.967 36.1792 166.773 37.3373 169.229 37.3373C173.722 37.2447 175.992 33.6777 175.992 26.5438ZM180.485 26.5438C180.485 30.2497 179.559 33.3071 177.66 35.7623C175.575 38.4954 172.703 39.8852 169.09 39.8852C165.476 39.8852 162.65 38.4954 160.612 35.7623C158.759 33.3071 157.833 30.2497 157.833 26.5438C157.833 23.0694 158.852 20.151 160.844 17.7885C162.975 15.2869 165.708 13.9899 169.136 13.9899C172.564 13.9899 175.343 15.2406 177.521 17.7885C179.513 20.151 180.485 23.0694 180.485 26.5438Z" fill="#646464"/>
<path d="M204.157 39.3756H200.034V22.5599C200.034 20.7069 199.478 19.2708 198.367 18.2517C197.255 17.2326 195.772 16.723 193.919 16.7693C191.974 16.8157 190.074 17.4642 188.314 18.6686V39.3756H184.191V18.1127C186.554 16.3987 188.731 15.2406 190.769 14.7311C192.669 14.2215 194.336 13.9899 195.726 13.9899C196.699 13.9899 197.625 14.0825 198.505 14.2678C200.127 14.6384 201.424 15.3333 202.443 16.3524C203.555 17.4642 204.157 18.8539 204.157 20.4289V39.3756Z" fill="#646464"/>
<path d="M25.4842 1.43604C23.3533 1.43604 21.3151 1.62133 19.5547 1.9456C14.3201 2.87209 13.3473 4.81771 13.3473 8.38468V13.1098H25.7622V14.6848H13.3473H8.66852C5.05522 14.6848 1.90517 16.862 0.886037 20.9849C-0.27207 25.71 -0.318394 28.6747 0.886037 33.6314C1.7662 37.291 3.89712 39.9315 7.46409 39.9315H11.7259V34.28C11.7259 30.1571 15.2929 26.5438 19.5084 26.5438H31.9233C35.3976 26.5438 38.1308 23.718 38.1308 20.2437V8.43101C38.1308 5.04933 35.305 2.54782 31.9233 1.99193C29.8387 1.62133 27.6152 1.43604 25.4842 1.43604ZM18.7672 5.28095C20.0643 5.28095 21.0834 6.34641 21.0834 7.64349C21.0834 8.94057 20.018 10.006 18.7672 10.006C17.4701 10.006 16.451 8.94057 16.451 7.64349C16.451 6.34641 17.4701 5.28095 18.7672 5.28095Z" fill="url(#paint0_linear)"/>
<path d="M39.7058 14.7311V20.2437C39.7058 24.5056 36.0925 28.1189 31.9233 28.1189H19.5547C16.1731 28.1189 13.3473 31.0373 13.3473 34.419V46.2317C13.3473 49.6133 16.2657 51.559 19.5547 52.5318C23.4923 53.6899 27.2446 53.8752 31.9697 52.5318C35.1197 51.6053 38.1771 49.7986 38.1771 46.2317V41.5066H25.7622V39.9316H38.1771H44.3846C47.9979 39.9316 49.3413 37.43 50.592 33.6315C51.8891 29.7402 51.8428 25.9879 50.592 20.9849C49.7119 17.3716 47.9979 14.6848 44.3846 14.6848H39.7058V14.7311ZM32.7572 44.6566C34.0543 44.6566 35.0734 45.7221 35.0734 47.0192C35.0734 48.3163 34.0079 49.3817 32.7572 49.3817C31.4601 49.3817 30.441 48.3163 30.441 47.0192C30.3946 45.7221 31.4601 44.6566 32.7572 44.6566Z" fill="url(#paint1_linear)"/>
<path d="M212.218 10.9325H212.959V6.39268H214.673V5.83679H210.504V6.39268H212.218V10.9325ZM215.275 10.9325H215.877V6.8096L217.221 10.9325H217.915L219.305 6.8096V10.9325H220V5.83679H219.12L217.591 10.1913L216.294 5.83679H215.275V10.9325Z" fill="#646464"/>
<path opacity="0.4438" d="M42.5316 60.5922C42.5316 62.3525 35.0734 63.8349 25.9012 63.8349C16.729 63.8349 9.27075 62.3988 9.27075 60.5922C9.27075 58.8319 16.729 57.3495 25.9012 57.3495C35.1197 57.3958 42.5316 58.8319 42.5316 60.5922Z" fill="url(#paint2_radial)"/>
<defs>
<linearGradient id="paint0_linear" x1="-1.21038" y1="2.93309" x2="27.4327" y2="27.3381" gradientUnits="userSpaceOnUse">
<stop stop-color="#5A9FD4"/>
<stop offset="1" stop-color="#306998"/>
</linearGradient>
<linearGradient id="paint1_linear" x1="38.1801" y1="42.549" x2="27.904" y2="28.1508" gradientUnits="userSpaceOnUse">
<stop stop-color="#FFD43B"/>
<stop offset="1" stop-color="#FFE873"/>
</linearGradient>
<radialGradient id="paint2_radial" cx="0" cy="0" r="1" gradientUnits="userSpaceOnUse" gradientTransform="translate(25.909 60.6086) rotate(-90) scale(3.227 14.1872)">
<stop stop-color="#B8B8B8" stop-opacity="0.498"/>
<stop offset="1" stop-color="#7F7F7F" stop-opacity="0"/>
</radialGradient>
</defs>
</svg>

<svg xmlns="http://www.w3.org/2000/svg" width="220" height="64" fill="none" xmlns:v="https://vecta.io/nano"><path d="M82.973 27.192c0-6.763-1.946-10.191-5.791-10.377-1.529-.093-3.011.185-4.493.741-1.158.417-1.946.834-2.362 1.251v16.121c2.455 1.529 4.632 2.27 6.532 2.131 4.123-.324 6.115-3.613 6.115-9.867zm4.771.278c0 3.428-.788 6.254-2.409 8.524-1.807 2.548-4.308 3.891-7.505 3.938-2.409.093-4.864-.695-7.458-2.27V52.3l-4.123-1.482V18.344c.695-.834 1.529-1.529 2.594-2.131 2.455-1.436 5.42-2.177 8.941-2.223l.046.046c3.196-.046 5.698 1.297 7.412 3.938 1.668 2.502 2.502 5.651 2.502 9.496zm25.201 9.589c0 4.586-.464 7.783-1.39 9.543s-2.687 3.196-5.281 4.215a19.62 19.62 0 0 1-6.856 1.343l-.695-2.594c2.502-.324 4.262-.695 5.235-1.019 1.992-.695 3.381-1.714 4.123-3.104.602-1.112.88-3.289.88-6.485v-1.065c-2.826 1.297-5.791 1.899-8.895 1.899-2.038 0-3.844-.648-5.373-1.899-1.714-1.39-2.594-3.15-2.594-5.327v-17.14l4.123-1.436v17.279c0 1.853.602 3.289 1.807 4.262 1.205 1.019 2.733 1.482 4.633 1.436s3.937-.788 6.068-2.224V14.638h4.123v22.421h.093zm16.12 2.641c-.509.046-.926.046-1.343.046-2.316 0-4.169-.556-5.466-1.668s-1.946-2.641-1.946-4.632V17.233h-2.826v-2.594h2.826V7.736l4.123-1.482v8.385h4.632v2.594h-4.632v16.121c0 1.529.417 2.641 1.251 3.289.695.51 1.853.834 3.381.927v2.13zm24.969-.324h-4.123V23.44c0-1.621-.37-3.011-1.111-4.169-.881-1.297-2.085-1.992-3.614-1.992-1.899 0-4.262 1.019-7.087 3.011v19.086h-4.17V1.297L138.052 0v17.325c2.641-1.899 5.513-2.872 8.663-2.872 2.177 0 3.938.741 5.327 2.223 1.344 1.482 2.039 3.289 2.039 5.466v17.233h-.047zm21.958-12.832c0-2.594-.51-4.725-1.482-6.439-1.159-2.085-2.965-3.15-5.42-3.243-4.54.278-6.764 3.521-6.764 9.728 0 2.872.463 5.235 1.436 7.134 1.205 2.455 3.011 3.613 5.467 3.613 4.493-.093 6.763-3.66 6.763-10.793zm4.493 0c0 3.706-.926 6.763-2.825 9.219-2.085 2.733-4.957 4.123-8.57 4.123s-6.44-1.39-8.478-4.123c-1.853-2.455-2.779-5.513-2.779-9.219 0-3.474 1.019-6.393 3.011-8.755 2.131-2.502 4.864-3.799 8.292-3.799s6.207 1.251 8.385 3.799c1.992 2.363 2.964 5.281 2.964 8.755zm23.672 12.832h-4.123V22.56c0-1.853-.556-3.289-1.667-4.308s-2.595-1.529-4.448-1.482c-1.945.046-3.845.695-5.605 1.899v20.707h-4.123V18.113c2.363-1.714 4.54-2.872 6.578-3.382 1.9-.51 3.567-.741 4.957-.741a13.48 13.48 0 0 1 2.779.278c1.622.371 2.919 1.066 3.938 2.085 1.112 1.112 1.714 2.502 1.714 4.076v18.947z" fill="#646464"/><path d="M25.484 1.436c-2.131 0-4.169.185-5.93.51-5.235.926-6.207 2.872-6.207 6.439v4.725h12.415v1.575H13.347 8.669c-3.613 0-6.763 2.177-7.782 6.3-1.158 4.725-1.204 7.69 0 12.647.88 3.66 3.011 6.3 6.578 6.3h4.262V34.28c0-4.123 3.567-7.736 7.783-7.736h12.415c3.474 0 6.208-2.826 6.208-6.3V8.431c0-3.382-2.826-5.883-6.207-6.439-2.085-.371-4.308-.556-6.439-.556zm-6.717 3.845c1.297 0 2.316 1.065 2.316 2.363s-1.065 2.363-2.316 2.363c-1.297 0-2.316-1.065-2.316-2.363s1.019-2.363 2.316-2.363z" fill="url(#A)"/><path d="M39.706 14.731v5.513c0 4.262-3.613 7.875-7.783 7.875H19.555c-3.382 0-6.207 2.918-6.207 6.3v11.813c0 3.382 2.918 5.327 6.207 6.3 3.938 1.158 7.69 1.343 12.415 0 3.15-.926 6.207-2.733 6.207-6.3v-4.725H25.762v-1.575h12.415 6.207c3.613 0 4.957-2.502 6.207-6.3 1.297-3.891 1.251-7.644 0-12.647-.88-3.613-2.594-6.3-6.207-6.3h-4.679v.046zm-6.949 29.926c1.297 0 2.316 1.066 2.316 2.363s-1.065 2.363-2.316 2.363c-1.297 0-2.316-1.065-2.316-2.363-.046-1.297 1.019-2.363 2.316-2.363z" fill="url(#B)"/><path d="M212.218 10.933h.741v-4.54h1.714v-.556h-4.169v.556h1.714v4.54zm3.057 0h.602V6.81l1.344 4.123h.694l1.39-4.123v4.123H220V5.837h-.88l-1.529 4.355-1.297-4.355h-1.019v5.096z" fill="#646464"/><path opacity=".444" d="M42.532 60.592c0 1.76-7.458 3.243-16.63 3.243s-16.63-1.436-16.63-3.243c0-1.76 7.458-3.243 16.63-3.243 9.219.046 16.63 1.482 16.63 3.243z" fill="url(#C)"/><defs><linearGradient id="A" x1="-1.21" y1="2.933" x2="27.433" y2="27.338" gradientUnits="userSpaceOnUse"><stop stop-color="#5a9fd4"/><stop offset="1" stop-color="#306998"/></linearGradient><linearGradient id="B" x1="38.18" y1="42.549" x2="27.904" y2="28.151" gradientUnits="userSpaceOnUse"><stop stop-color="#ffd43b"/><stop offset="1" stop-color="#ffe873"/></linearGradient><radialGradient id="C" cx="0" cy="0" r="1" gradientUnits="userSpaceOnUse" gradientTransform="translate(25.909 60.6086) rotate(-90) scale(3.227 14.1872)"><stop stop-color="#b8b8b8" stop-opacity=".498"/><stop offset="1" stop-color="#7f7f7f" stop-opacity="0"/></radialGradient></defs></svg>
